X: 18512
T: I Dreamt I Dwelt In Marble Halls
R: waltz
M: 3/4
K: Cdorian
F2|F2B2A2|F2A2G2|F2{A}G2F2|D4 D2|F2E2=B,2|C2F3E|DC B,4-|B,4FF|
F2B2A2|F2A2G2|F2{A}G2F2|D4 D2|F2E2=B,2|C2F3E|DC B,4-|B,4FF|
G2c2B2|_G2c2B2|F2c2B2|F4FF|=E2F2G2|A4A2|A6-|A4G2|
F2B2A2|F2A2G2|F2{A}G2F2|D4 D2|F2E2=B,2|C4E2|D4EF|G2A3B|
B(c/B/A2)B2|c2G2A2|D2E2F2|G2A3B|B(c/B/A2)B2|d4c2|G4A2|B6-|B4||

